svg/u1fad6.svg

<svg viewBox="0 0 128 128" xmlns="http://www.w3.org/2000/svg">
  <g>
    <path d="M29.31,97.26c-6.07-1.44-19.68-9.02-23.64-20.05c-3.1-8.62-1.25-19.27,4.3-24.77 c3.69-3.65,8.48-4.65,13.49-2.79c10.42,3.85,14.95,25.16,15,25.37l0.07,0.58c0.23,6.16-0.02,17.02-4.28,20.52 c-1.05,0.86-2.29,1.31-3.58,1.31C30.22,97.42,29.76,97.37,29.31,97.26z M19.61,58.41c-2.89-1.78-4.54-0.83-4.54-0.83 c-3.5,3.47-4.3,9.59-1.52,16.28c2.54,6.12,9.57,11.8,16.17,13.27c0.91-2.2,0.42-3.4,0.24-8.98C28.6,72.12,23.74,60.96,19.61,58.41z " fill="#EE5A46"/>
    <path d="M46.83,109.7c0.39-0.53,0.9-1,1.57-1.31c1.17-0.54,8.78-1.5,17.24-2.43 c8.45,0.93,16.07,1.89,17.24,2.43c0.67,0.31,1.18,0.78,1.57,1.31c1.33,1.83,2.12,4.63,0.2,5.59c-2.92,1.46-8.75,3.43-19.01,3.43 s-16.09-1.97-19.01-3.43C44.71,114.33,45.5,111.54,46.83,109.7z" fill="#CC3F27"/>
    <path d="M47.47,45.31c0,0,12.83-4.19,18.17-4.19s18.17,4.19,18.17,4.19c10.25,8.37,21.66,21.5,21.66,33.93 c0,13.09-7.81,25.42-20.22,31.26c-5.64,2.65-12.73,3.22-19.61,3.22s-13.96-0.56-19.61-3.22c-12.42-5.84-20.22-18.17-20.22-31.26 C25.81,66.81,37.23,53.68,47.47,45.31z" fill="#EE5A46"/>
    <path d="M123.4,51.04l-0.12-1.45l-9.5-0.72c0,0-3.38,2.86-5.44,8.35c-1.94,5.18-3.45,10.46-5.91,10.87 c-2.47,0.41-2.47,0.41-2.47,0.41s-5.62,1.2-5.91,12.46c-0.29,11.26,5.91,13.03,5.91,13.03s7.4,1.03,13.15-9.87 s3.7-18.29,5.55-23.84S123.4,51.04,123.4,51.04z" fill="#EE5A46"/>
    <ellipse cx="118.54" cy="50.05" fill="#EE5A46" rx="5.29" ry="2.77"/>
    <ellipse cx="118.54" cy="49.85" fill="#AF2C1B" rx="3.68" ry="1.73"/>
    <path d="M44.17,46.84c5.14-1.72,12.61-2.81,20.93-2.81c7.99,0,15.19,1,20.3,2.61 c1.8,1.54,3.61,3.21,5.37,4.99c0.7,0.7-1.33,9.6-25.77,9.6s-26.3-8.82-25.64-9.53C40.91,50.02,42.52,48.39,44.17,46.84z" fill="#CC3F27"/>
    <ellipse cx="65.1" cy="50.92" fill="#FFA726" rx="25.69" ry="8.43"/>
    <path d="M86.59,47.36c0,0-8.02-8.54-21.59-8.54s-21.59,8.54-21.59,8.54c0,3.81,9.66,6.9,21.59,6.9 S86.59,51.17,86.59,47.36z" fill="#EE5A46"/>
    <circle cx="65" cy="34.92" fill="#EE5A46" r="7.31"/>
    <path d="M59.18,39.35c1.01,0.63,1.95,1.11,2.92,1.42c0.96,0.31,1.93,0.46,2.9,0.46 c0.97,0,1.93-0.15,2.89-0.46c0.97-0.31,1.91-0.78,2.92-1.41c-0.35,1.15-1.18,2.14-2.22,2.82c-1.05,0.69-2.32,1.06-3.59,1.05 c-1.27,0-2.55-0.37-3.59-1.06C60.37,41.48,59.54,40.5,59.18,39.35z" fill="#CC3F27"/>
    <path d="M21.86,59.77c-1.89-1.25-3.93-2.27-5.97-2.53c-2.04-0.28-3.92,0.47-5.3,1.95 c-0.71,0.69-1.22,1.52-1.62,2.48c-0.43,0.94-0.69,1.99-0.94,3.04c-0.45,2.13-0.69,4.36-0.89,6.64c-0.65-2.21-0.87-4.53-0.68-6.87 c0.08-1.17,0.34-2.34,0.72-3.51c0.43-1.13,1.06-2.31,1.99-3.19c0.88-0.87,1.97-1.63,3.22-2.01c1.25-0.37,2.59-0.38,3.79-0.05 C18.59,56.39,20.5,57.93,21.86,59.77z" fill="#CC3F27"/>
    <path d="M33.58,68.14c2.54-6.41,8.4-8.08,10.63-5.73c3.61,3.8-2.06,11.15-4.65,15.01 c-1.96,2.92-2.37,8.88-2.61,9.72c-0.99,3.4-3.52,1.13-4.31-1.99C31.37,80.15,31.06,74.5,33.58,68.14z" fill="#FF8E5C"/>
  </g>
</svg>

<svg viewBox="0 0 128 128" xmlns="http://www.w3.org/2000/svg">
  <defs/>
  <path d="M29.31,97.26 C23.24,95.82 9.63,88.24 5.67,77.21 C2.57,68.59 4.42,57.94 9.97,52.44 C13.66,48.79 18.45,47.79 23.46,49.65 C33.88,53.5 38.41,74.81 38.46,75.02 L38.53,75.6 C38.76,81.76 38.51,92.62 34.25,96.12 C33.2,96.98 31.96,97.43 30.67,97.43 C30.22,97.42 29.76,97.37 29.31,97.26 Z M19.61,58.41 C16.72,56.63 15.07,57.58 15.07,57.58 C11.57,61.05 10.77,67.17 13.55,73.86 C16.09,79.98 23.12,85.66 29.72,87.13 C30.63,84.93 30.14,83.73 29.96,78.15 C28.6,72.12 23.74,60.96 19.61,58.41 Z" fill="#EE5A46"/>
  <path d="M46.83,109.7 C47.22,109.17 47.73,108.7 48.4,108.39 C49.57,107.85 57.18,106.89 65.64,105.96 C74.09,106.89 81.71,107.85 82.88,108.39 C83.55,108.7 84.06,109.17 84.45,109.7 C85.78,111.53 86.57,114.33 84.65,115.29 C81.73,116.75 75.9,118.72 65.64,118.72 C55.38,118.72 49.55,116.75 46.63,115.29 C44.71,114.33 45.5,111.54 46.83,109.7 Z" fill="#CC3F27"/>
  <path d="M47.47,45.31 C47.47,45.31 60.3,41.12 65.64,41.12 C70.98,41.12 83.81,45.31 83.81,45.31 C94.06,53.68 105.47,66.81 105.47,79.24 C105.47,92.33 97.66,104.66 85.25,110.5 C79.61,113.15 72.52,113.72 65.64,113.72 C58.76,113.72 51.68,113.16 46.03,110.5 C33.61,104.66 25.81,92.33 25.81,79.24 C25.81,66.81 37.23,53.68 47.47,45.31 Z" fill="#EE5A46"/>
  <path d="M123.4,51.04 L123.28,49.59 L113.78,48.87 C113.78,48.87 110.4,51.73 108.34,57.22 C106.4,62.4 104.89,67.68 102.43,68.09 C99.96,68.5 99.96,68.5 99.96,68.5 C99.96,68.5 94.34,69.7 94.05,80.96 C93.76,92.22 99.96,93.99 99.96,93.99 C99.96,93.99 107.36,95.02 113.11,84.12 C118.86,73.22 116.81,65.83 118.66,60.28 C120.51,54.73 123.4,51.04 123.4,51.04 Z" fill="#EE5A46"/>
  <path d="M123.83,50.05 A5.29 2.77 0 1 1 113.25,50.05 A5.29 2.77 0 1 1 123.83,50.05 Z" fill="#EE5A46"/>
  <path d="M122.22,49.85 A3.68 1.73 0 1 1 114.86,49.85 A3.68 1.73 0 1 1 122.22,49.85 Z" fill="#AF2C1B"/>
  <path d="M44.17,46.84 C49.31,45.12 56.78,44.03 65.1,44.03 C73.09,44.03 80.29,45.03 85.4,46.64 C87.2,48.18 89.01,49.85 90.77,51.63 C91.47,52.33 89.44,61.23 65,61.23 C40.56,61.23 38.7,52.41 39.36,51.7 C40.91,50.02 42.52,48.39 44.17,46.84 Z" fill="#CC3F27"/>
  <path d="M90.79,50.92 A25.69 8.43 0 1 1 39.41,50.92 A25.69 8.43 0 1 1 90.79,50.92 Z" fill="#FFA726"/>
  <path d="M86.59,47.36 C86.59,47.36 78.57,38.82 65,38.82 C51.43,38.82 43.41,47.36 43.41,47.36 C43.41,51.17 53.07,54.26 65,54.26 C76.93,54.26 86.59,51.17 86.59,47.36 Z" fill="#EE5A46"/>
  <path d="M72.31,34.92 A7.31 7.31 0 1 1 57.69,34.92 A7.31 7.31 0 1 1 72.31,34.92 Z" fill="#EE5A46"/>
  <path d="M59.18,39.35 C60.19,39.98 61.13,40.46 62.1,40.77 C63.06,41.08 64.03,41.23 65,41.23 C65.97,41.23 66.93,41.08 67.89,40.77 C68.86,40.46 69.8,39.99 70.81,39.36 C70.46,40.51 69.63,41.5 68.59,42.18 C67.54,42.87 66.27,43.24 65,43.23 C63.73,43.23 62.45,42.86 61.41,42.17 C60.37,41.48 59.54,40.5 59.18,39.35 Z" fill="#CC3F27"/>
  <path d="M21.86,59.77 C19.97,58.52 17.93,57.5 15.89,57.24 C13.85,56.96 11.97,57.71 10.59,59.19 C9.88,59.88 9.37,60.71 8.97,61.67 C8.54,62.61 8.28,63.66 8.03,64.71 C7.58,66.84 7.34,69.07 7.14,71.35 C6.49,69.14 6.27,66.82 6.46,64.48 C6.54,63.31 6.8,62.14 7.18,60.97 C7.61,59.84 8.24,58.66 9.17,57.78 C10.05,56.91 11.14,56.15 12.39,55.77 C13.64,55.4 14.98,55.39 16.18,55.72 C18.59,56.39 20.5,57.93 21.86,59.77 Z" fill="#CC3F27"/>
  <path d="M33.58,68.14 C36.12,61.73 41.98,60.06 44.21,62.41 C47.82,66.21 42.15,73.56 39.56,77.42 C37.6,80.34 37.19,86.3 36.95,87.14 C35.96,90.54 33.43,88.27 32.64,85.15 C31.37,80.15 31.06,74.5 33.58,68.14 Z" fill="#FF8E5C"/>
</svg>
